images/ic_notif.svg

<svg width="18" height="18" viewBox="0 0 18 18" fill="none" xmlns="http://www.w3.org/2000/svg">
<path d="M16.4166 13.3914C16.3451 13.0097 15.9777 12.7582 15.596 12.8298C15.2144 12.9013 14.9629 13.2687 15.0344 13.6504C15.0875 13.9335 14.963 14.1353 14.8841 14.2304C14.8054 14.3253 14.6304 14.4844 14.3434 14.4844H3.67023C3.38318 14.4844 3.20825 14.3253 3.12953 14.2304C3.05064 14.1353 2.92615 13.9335 2.97924 13.6504C3.17868 12.5861 3.57886 11.8861 3.96586 11.2091C4.4359 10.3871 4.9219 9.53698 4.9219 8.22656V7.17188C4.9219 4.95468 6.72412 3.12637 8.94033 3.09421H9.07326C11.2819 3.12627 13.0782 4.95457 13.0782 7.17188V8.22656C13.0782 9.34182 13.443 10.1093 13.7849 10.741C13.9122 10.9762 14.1541 11.1096 14.4039 11.1096C14.5169 11.1096 14.6316 11.0823 14.738 11.0247C15.0795 10.8399 15.2065 10.4132 15.0216 10.0717C14.6814 9.44304 14.4844 8.93957 14.4844 8.22656V7.17188C14.4844 5.72481 13.9239 4.35807 12.9061 3.32346C12.0339 2.43675 10.9139 1.88346 9.70315 1.73074V0.703125C9.70315 0.314789 9.38836 0 9.00003 0C8.61169 0 8.2969 0.314789 8.2969 0.703125V1.73282C5.60893 2.08157 3.51565 4.40089 3.51565 7.17188V8.22656C3.51565 9.16337 3.17559 9.75818 2.74506 10.5112C2.32094 11.2532 1.84018 12.0941 1.59704 13.3914C1.48098 14.0107 1.64516 14.6438 2.04749 15.1286C2.44947 15.6129 3.04094 15.8906 3.67023 15.8906H6.90422C6.90422 17.0537 7.85049 18 9.0136 18C10.1767 18 11.123 17.0537 11.123 15.8906H14.3434C14.9727 15.8906 15.5642 15.6129 15.9661 15.1286C16.3685 14.6438 16.5326 14.0107 16.4166 13.3914ZM9.01363 16.5938C8.62593 16.5938 8.31051 16.2783 8.31051 15.8906H9.71676C9.71676 16.2783 9.40134 16.5938 9.01363 16.5938Z" fill="#979797"/>
<path d="M3.80964 1.58453C3.5203 1.3255 3.07579 1.35011 2.81679 1.63945C1.45378 3.16207 0.703125 5.1266 0.703125 7.17114C0.703125 7.55948 1.01791 7.87427 1.40625 7.87427C1.79459 7.87427 2.10938 7.55948 2.10938 7.17114C2.10938 5.47317 2.7327 3.84174 3.86455 2.57738C4.12355 2.28805 4.09897 1.84353 3.80964 1.58453Z" fill="#979797"/>
<path d="M15.1832 1.64017C14.9242 1.35087 14.4797 1.32626 14.1904 1.58525C13.9011 1.84425 13.8765 2.28876 14.1355 2.5781C15.2673 3.84249 15.8906 5.47388 15.8906 7.17186C15.8906 7.5602 16.2054 7.87499 16.5938 7.87499C16.9821 7.87499 17.2969 7.5602 17.2969 7.17186C17.2969 5.12731 16.5462 3.16278 15.1832 1.64017Z" fill="#979797"/>
</svg>

<svg xmlns="http://www.w3.org/2000/svg" viewBox="0 0 18 18" fill="#979797"><path d="M16.417 13.4c-.072-.382-.44-.633-.82-.562s-.633.44-.562.82a.69.69 0 0 1-.15.58c-.08.095-.254.254-.54.254H3.67c-.287 0-.462-.16-.54-.254s-.203-.297-.15-.58c.2-1.064.6-1.764.987-2.44.47-.822.956-1.672.956-2.982V7.172c0-2.217 1.802-4.046 4.018-4.078h.133a4.09 4.09 0 0 1 4.005 4.078v1.055c0 1.115.365 1.883.707 2.514.127.235.37.37.62.37a.7.7 0 0 0 .618-1.038c-.34-.63-.537-1.132-.537-1.845V7.172c0-1.447-.56-2.814-1.578-3.848A5.43 5.43 0 0 0 9.704 1.73V.703a.7.7 0 1 0-1.407 0v1.03c-2.688.35-4.78 2.668-4.78 5.44v1.055c0 .937-.34 1.532-.77 2.285-.424.742-.905 1.583-1.148 2.88-.116.62.048 1.252.45 1.737a2.1 2.1 0 0 0 1.623.762h3.234a2.1 2.1 0 0 0 2.1 2.1 2.11 2.11 0 0 0 2.11-2.11h3.22a2.1 2.1 0 0 0 1.623-.762c.402-.485.567-1.118.45-1.737zm-7.403 3.202c-.388 0-.703-.316-.703-.703h1.406c0 .388-.315.703-.703.703zM3.8 1.585c-.3-.26-.734-.234-.993.055A8.32 8.32 0 0 0 .703 7.17c0 .388.315.703.703.703s.703-.315.703-.703a6.88 6.88 0 0 1 1.755-4.594c.26-.3.234-.734-.055-.993zm11.383.055c-.26-.3-.703-.314-.993-.055s-.314.704-.055.993a6.88 6.88 0 0 1 1.755 4.594c0 .388.315.703.703.703s.703-.315.703-.703a8.28 8.28 0 0 0-2.114-5.532z"/></svg>
